icons/microsoft.svg

<!-- Generated by IcoMoon.io -->
<svg version="1.1" xmlns="http://www.w3.org/2000/svg" width="32" height="32" viewBox="0 0 32 32">
<title>microsoft</title>
<path fill="#666" d="M15.2 32h-15.2v-15.2h15.2zM32 32h-15.2v-15.2h15.2zM15.2 15.2h-15.2v-15.2h15.2zM32 15.2h-15.2v-15.2h15.2z"></path>
</svg>

<?xml version="1.0" encoding="utf-8"?>
<!-- Generator: Adobe Illustrator 26.0.1, SVG Export Plug-In . SVG Version: 6.00 Build 0)  -->
<svg version="1.1" id="Layer_1" xmlns="http://www.w3.org/2000/svg" xmlns:xlink="http://www.w3.org/1999/xlink" x="0px" y="0px"
	 viewBox="0 0 32 32" style="enable-background:new 0 0 32 32;" xml:space="preserve">
<style type="text/css">
	.st0{fill:#666666;}
</style>
<path class="st0" d="M15.2,32H0V16.8h15.2V32z M32,32H16.8V16.8H32V32z M15.2,15.2H0V0h15.2V15.2z M32,15.2H16.8V0H32V15.2z"/>
</svg>
